X: 1623
T: Anne Fraser MacKenzie
R: jig
M: 6/8
K: Amajor
E|:A2A GAB|A2A BGE|c2c Bcd|edc BAG|
A2A GAB|c2c dcd|edB EFG|1 (A3 A2)E:|2 (A3 A2)c/d/||
|:e2c aga|f2d Bcd|c2A edc|Bcd efg|
a2a gag|edc dcd|edB EFG|1 (A3 A2)c/d/:|2 (A3 A2)||

